X: 137
M: 6/8
L: 1/8
K: Em
E2 E F2 G | A2 G F2 B |
e2 g f2 e | =d2 ^c B2 c |
d3 A2 ^c | d3 A2 ^c | d2 =f e2 d |
=c2 B A2 e | e2 ^d e2 ^c |
e2 ^c d2 B | e2 g f2 e |
d2 c B2 A | G2 G (G>A) G |

